X:5
T:The Old Spring
T:to the tune of "Half a Brown Ale"
C:Gina Millard
M:6/8
L:1/8
K:G
P:A
G>AB cBA|GAF G2d|d>ef gfe|d3-d2d|
g>fg dcB|cde d2G|B>cd cBA|G3-G2F:|
P:B
GAB d3|FGA d3|GAB gfe|dcB AGA|B>cd cBA|G3-G2F:|
